app/assets/images/payment_icons/zip.svg

<svg xmlns="http://www.w3.org/2000/svg" width="38" height="24" viewBox="0 0 38 24" fill="none" aria-labelledby="pi-zip" role="img"><title id="pi-zip">Zip</title><rect width="38" height="24" fill="white"/><path d="M6.50002 14.7L6.70002 16.6H14.7L14.5 14.4H10.7V14.2L14.1 11.8L13.9 9.89999H5.90002L6.20002 12H9.90002V12.3L6.50002 14.7Z" fill="#1A0826"/><path d="M14.8 9.89999L15.7 16.6H23.7L22.9 9.89999H14.8Z" fill="#AA8FFF"/><path d="M32.1 12.3C31.9 10.8 30.7 9.89999 29.1 9.89999H23.8L24.6 16.6H27L26.8 15.3H29.3C31.4 15.2 32.3 14 32.1 12.3ZM29.1 13.4H26.6L26.4 11.8H28.9C29.5 11.8 29.8 12.1 29.8 12.6C29.9 12.8 29.8 13.4 29.1 13.4V13.4Z" fill="#1A0826"/><path d="M17.3641 9.04155C17.7802 8.59891 17.6935 7.84143 17.1703 7.34968C16.6472 6.85793 15.8858 6.81812 15.4697 7.26077C15.0536 7.70342 15.1404 8.4609 15.6635 8.95265C16.1866 9.4444 16.948 9.4842 17.3641 9.04155Z" fill="#1A0826"/></svg>

<svg xmlns="http://www.w3.org/2000/svg" role="img" viewBox="0 0 38 24" width="38" height="24" aria-labelledby="pi-zip"><title id="pi-zip">Zip</title><path d="M34.9 23H3.1c-1.1 0-2-.9-2-2V3c0-1.1.9-2 2-2h31.8c1.1 0 2 .9 2 2v18c0 1.1-.9 2-2 2z" fill="#fff"/><path fill="#1a0826" d="M6.5 14.7l.2 1.9h8l-.2-2.2h-3.8v-.2l3.4-2.4-.2-1.9h-8l.3 2.1h3.7v.3z"/><path fill="#aa8fff" d="M14.8 9.9l.9 6.7h8l-.8-6.7z"/><path d="M32.1 12.3c-.2-1.5-1.4-2.4-3-2.4h-5.3l.8 6.7H27l-.2-1.3h2.5c2.1-.1 3-1.3 2.8-3zm-3 1.1h-2.5l-.2-1.6h2.5c.6 0 .9.3.9.8.1.2 0 .8-.7.8z" fill="#1a0826"/><ellipse transform="rotate(-46.771 16.352 8.156)" cx="16.4" cy="8.2" rx="1.1" ry="1.3" fill="#1a0826"/><path d="M34.9 1c1.1 0 2 .9 2 2v18c0 1.1-.9 2-2 2H3.1c-1.1 0-2-.9-2-2V3c0-1.1.9-2 2-2h31.8m0-1H3.1c-1.7 0-3 1.3-3 3v18c0 1.7 1.3 3 3 3h31.8c1.7 0 3-1.3 3-3V3c0-1.6-1.3-3-3-3z" opacity=".07"/></svg>
